flaticon/emoticons/laughing-3.svg

<svg xmlns="http://www.w3.org/2000/svg" width="32" height="32" viewBox="0 0 24 24">
    <path d="M 12 0 C 6.054688 0 1.21875 4.835938 1.21875 10.78125 L 1.21875 15.246094 C 1.21875 15.25 1.21875 15.25 1.21875 15.25 C 1.21875 15.25 1.21875 15.253906 1.21875 15.253906 L 1.21875 20.746094 C 1.21875 21.867188 2.132812 22.78125 3.253906 22.78125 L 5.917969 22.78125 C 5.9375 22.789062 5.957031 22.796875 5.976562 22.804688 C 7.402344 23.476562 9.121094 23.878906 11.078125 23.976562 C 11.121094 23.976562 11.164062 23.980469 11.210938 23.980469 C 11.46875 23.992188 11.730469 24 12 24 C 12.269531 24 12.53125 23.992188 12.792969 23.980469 C 12.835938 23.980469 12.878906 23.976562 12.921875 23.976562 C 14.878906 23.878906 16.597656 23.476562 18.023438 22.804688 C 18.042969 22.796875 18.0625 22.789062 18.082031 22.777344 L 20.746094 22.777344 C 21.867188 22.777344 22.78125 21.867188 22.78125 20.746094 L 22.78125 10.78125 C 22.78125 4.835938 17.945312 0 12 0 Z M 17.894531 21.964844 L 17.8125 22.007812 C 16.660156 22.566406 15.289062 22.929688 13.777344 23.089844 C 13.667969 23.101562 13.558594 23.113281 13.445312 23.125 C 13.285156 23.136719 13.125 23.148438 12.960938 23.15625 C 12.648438 23.175781 12.328125 23.1875 12 23.1875 C 11.671875 23.1875 11.351562 23.175781 11.039062 23.15625 C 10.875 23.148438 10.714844 23.136719 10.554688 23.121094 C 10.441406 23.113281 10.332031 23.101562 10.222656 23.089844 C 8.710938 22.929688 7.339844 22.566406 6.1875 22.007812 L 6.105469 21.964844 L 6.066406 21.964844 C 3.476562 20.65625 2.035156 18.34375 2.035156 15.253906 C 2.035156 15.253906 2.035156 15.25 2.035156 15.25 C 2.035156 15.25 2.035156 15.25 2.035156 15.246094 C 2.039062 10.019531 6.425781 5.550781 11.796875 5.289062 L 12.183594 5.289062 C 17.578125 5.550781 21.964844 10.023438 21.964844 15.253906 C 21.964844 18.34375 20.523438 20.65625 17.933594 21.964844 Z M 3.253906 21.964844 C 2.582031 21.964844 2.035156 21.417969 2.035156 20.746094 L 2.035156 19.027344 C 2.597656 20.195312 3.441406 21.1875 4.535156 21.964844 Z M 21.964844 20.746094 C 21.964844 21.417969 21.417969 21.964844 20.746094 21.964844 L 19.464844 21.964844 C 20.558594 21.1875 21.402344 20.195312 21.964844 19.027344 Z M 12.203125 4.472656 L 11.777344 4.476562 C 7.390625 4.691406 3.625 7.492188 2.035156 11.28125 L 2.035156 10.78125 C 2.035156 5.285156 6.503906 0.8125 12 0.8125 C 17.496094 0.8125 21.964844 5.285156 21.964844 10.78125 L 21.964844 11.265625 C 20.371094 7.484375 16.601562 4.6875 12.203125 4.472656 Z M 12.203125 4.472656"/>
    <path d="M17.488281 16.679688L6.914062 16.679688C6.691406 16.679688 6.507812 16.871094 6.507812 17.097656 6.507812 18.820312 7.484375 20.410156 8.992188 21.148438 9.964844 21.625 11.074219 21.875 12.195312 21.875 13.320312 21.875 14.429688 21.625 15.40625 21.148438 16.921875 20.414062 17.898438 18.816406 17.894531 17.082031 17.894531 16.859375 17.710938 16.679688 17.488281 16.679688zM15.050781 20.417969C13.316406 21.257812 11.074219 21.257812 9.347656 20.417969 9.21875 20.355469 9.09375 20.28125 8.976562 20.203125 9.167969 19.675781 10.464844 19.304688 12.203125 19.304688 13.9375 19.304688 15.234375 19.675781 15.429688 20.199219 15.308594 20.28125 15.183594 20.355469 15.050781 20.417969zM16.0625 19.664062C15.570312 18.917969 14.203125 18.492188 12.203125 18.492188 10.199219 18.492188 8.832031 18.921875 8.339844 19.667969 7.789062 19.082031 7.429688 18.320312 7.34375 17.492188L17.058594 17.492188C16.972656 18.316406 16.613281 19.082031 16.0625 19.664062zM9.453125 12.371094C9.53125 12.460938 9.644531 12.511719 9.757812 12.511719 9.800781 12.511719 9.847656 12.503906 9.890625 12.488281 10.046875 12.433594 10.152344 12.292969 10.164062 12.128906 10.265625 10.566406 8.929688 9.050781 7.363281 8.949219 7.140625 8.945312 6.945312 9.105469 6.933594 9.332031 6.917969 9.554688 7.089844 9.746094 7.3125 9.761719 8.121094 9.8125 8.859375 10.414062 9.183594 11.160156 8.179688 10.671875 6.933594 10.796875 6.042969 11.578125 5.875 11.726562 5.859375 11.984375 6.007812 12.152344 6.15625 12.320312 6.414062 12.339844 6.582031 12.191406 7.425781 11.449219 8.710938 11.53125 9.453125 12.371094zM15.027344 11.160156C15.351562 10.410156 16.089844 9.8125 16.898438 9.761719 17.121094 9.746094 17.292969 9.554688 17.277344 9.328125 17.265625 9.105469 17.066406 8.941406 16.847656 8.949219 15.28125 9.050781 13.949219 10.566406 14.046875 12.128906 14.058594 12.292969 14.167969 12.433594 14.324219 12.488281 14.367188 12.503906 14.410156 12.511719 14.453125 12.511719 14.570312 12.511719 14.679688 12.460938 14.757812 12.371094 15.5 11.53125 16.789062 11.449219 17.628906 12.191406 17.796875 12.339844 18.054688 12.320312 18.203125 12.152344 18.351562 11.984375 18.335938 11.726562 18.167969 11.578125 17.277344 10.796875 16.03125 10.667969 15.027344 11.160156zM15.027344 11.160156"/>
</svg>

<svg xmlns="http://www.w3.org/2000/svg" width="32" height="32" viewBox="0 0 24 24">
    <path d="M12 0C6.055 0 1.219 4.836 1.219 10.781v9.965c0 1.121.914 2.035 2.035 2.035h2.664l.059.024c1.425.672 3.144 1.074 5.101 1.172.043 0 .086.003.133.003.258.012.52.02.789.02.27 0 .531-.008.793-.02l.129-.003c1.957-.098 3.676-.5 5.101-1.172.02-.008.04-.016.059-.028h2.664c1.121 0 2.035-.91 2.035-2.03V10.78C22.781 4.836 17.945 0 12 0zm5.895 21.965l-.082.043c-1.153.558-2.524.922-4.036 1.082l-.332.035c-.16.012-.32.023-.484.031a15.386 15.386 0 0 1-2.406-.035c-.114-.008-.223-.02-.332-.031-1.512-.16-2.883-.524-4.036-1.082l-.082-.043h-.039c-2.59-1.309-4.03-3.621-4.03-6.711v-.004-.004c.003-5.226 4.39-9.695 9.76-9.957h.388c5.394.262 9.78 4.734 9.78 9.965 0 3.09-1.44 5.402-4.03 6.71zm-14.641 0a1.22 1.22 0 0 1-1.219-1.219v-1.719a7.663 7.663 0 0 0 2.5 2.938zm18.71-1.219a1.22 1.22 0 0 1-1.218 1.219h-1.281a7.663 7.663 0 0 0 2.5-2.938zm-9.76-16.273l-.427.004c-4.386.214-8.152 3.015-9.742 6.804v-.5C2.035 5.285 6.504.812 12 .812c5.496 0 9.965 4.473 9.965 9.97v.484c-1.594-3.782-5.363-6.579-9.762-6.793zm0 0"/>
    <path d="M17.488 16.68H6.914a.416.416 0 0 0-.406.418c0 1.722.976 3.312 2.484 4.05a7.32 7.32 0 0 0 3.203.727c1.125 0 2.235-.25 3.211-.727 1.516-.734 2.492-2.332 2.489-4.066a.405.405 0 0 0-.407-.402zm-2.437 3.738c-1.735.84-3.977.84-5.703 0a3.164 3.164 0 0 1-.371-.215c.191-.527 1.488-.898 3.226-.898 1.735 0 3.031.37 3.227.894a2.806 2.806 0 0 1-.38.219zm1.011-.754c-.492-.746-1.859-1.172-3.859-1.172-2.004 0-3.371.43-3.863 1.176a3.744 3.744 0 0 1-.996-2.176h9.715a3.733 3.733 0 0 1-.997 2.172zm0 0M9.453 12.371a.397.397 0 0 0 .438.117.409.409 0 0 0 .273-.36c.102-1.562-1.234-3.077-2.8-3.179a.412.412 0 0 0-.43.383.406.406 0 0 0 .378.43c.81.05 1.547.652 1.872 1.398a2.866 2.866 0 0 0-3.141.418.408.408 0 1 0 .54.613 2.037 2.037 0 0 1 2.87.18zm0 0M15.027 11.16c.325-.75 1.063-1.348 1.871-1.398a.407.407 0 0 0 .38-.434.411.411 0 0 0-.43-.379c-1.567.102-2.899 1.617-2.801 3.18a.413.413 0 0 0 .406.383c.117 0 .227-.051.305-.14a2.038 2.038 0 0 1 2.87-.18.408.408 0 0 0 .54-.614 2.859 2.859 0 0 0-3.14-.418zm0 0"/>
</svg>
